actions/symbolic/format-text-direction-ltr-symbolic.svg

<?xml version="1.0" encoding="UTF-8" standalone="no"?>
<svg
   xmlns:dc="http://purl.org/dc/elements/1.1/"
   xmlns:cc="http://creativecommons.org/ns#"
   xmlns:rdf="http://www.w3.org/1999/02/22-rdf-syntax-ns#"
   xmlns:svg="http://www.w3.org/2000/svg"
   xmlns="http://www.w3.org/2000/svg"
   xmlns:sodipodi="http://sodipodi.sourceforge.net/DTD/sodipodi-0.dtd"
   xmlns:inkscape="http://www.inkscape.org/namespaces/inkscape"
   viewBox="0 0 16 16"
   id="svg3197"
   version="1.1"
   inkscape:version="0.91 r13725"
   sodipodi:docname="format-text-direction-ltr-symbolic.svg">
  <metadata
     id="metadata3205">
    <rdf:RDF>
      <cc:Work
         rdf:about="">
        <dc:format>image/svg+xml</dc:format>
        <dc:type
           rdf:resource="http://purl.org/dc/dcmitype/StillImage" />
      </cc:Work>
    </rdf:RDF>
  </metadata>
  <sodipodi:namedview
     pagecolor="#ffffff"
     bordercolor="#666666"
     borderopacity="1"
     objecttolerance="10"
     gridtolerance="10"
     guidetolerance="10"
     inkscape:pageopacity="0"
     inkscape:pageshadow="2"
     inkscape:window-width="640"
     inkscape:window-height="480"
     id="namedview3203"
     showgrid="false"
     inkscape:zoom="41.1875"
     inkscape:cx="3.6783005"
     inkscape:cy="8"
     inkscape:current-layer="svg3197" />
  <defs
     id="defs3051">
    <style
       type="text/css"
       id="current-color-scheme">
      .ColorScheme-Text {
        color:#bebebe;
      }
      </style>
  </defs>
  <path
     style="color:#bebebe;fill:currentColor;fill-opacity:1;stroke:none"
     class="ColorScheme-Text"
     d="m 2.846473,2.0003983 0,1.5999469 4.7800831,0 c 0.3411066,0 0.7966805,0.4912957 0.7966805,0.7999734 l 0,0.7999735 -3.9834026,0 c -0.7323644,0 -1.3827186,0.3071578 -1.7925311,0.7749743 -0.4098124,0.4678165 -0.6026012,1.0484692 -0.5975104,1.6249461 0.00478,0.5764768 0.2142513,1.1621293 0.6224067,1.6249455 0.4081554,0.462817 1.0440258,0.774975 1.7676348,0.774975 l 3.9834026,0 0.7966804,0 0.796681,0 0,-0.799974 0,-0.7999731 0,-3.9998673 C 10.01667,3.0928901 8.9651386,2.0003983 7.6265561,2.0003983 l -4.7800831,0 z m 1.593361,4.7998407 3.9834026,0 0,1.5999469 -3.9834026,0 c -0.3169753,0 -0.4516461,-0.087829 -0.5726141,-0.2249925 C 3.7462519,8.0380299 3.6451294,7.823709 3.6431535,7.6002125 3.6415602,7.3767158 3.7265421,7.1573951 3.8423236,7.0252315 3.9581052,6.8930679 4.1033481,6.800239 4.439834,6.800239 Z m 6.373444,2.39992 c 0,0 1.7e-5,0.888864 0,1.599947 l -8.813278,0 0,1.599947 8.813278,0 c -3e-6,0.711089 -4e-5,1.599929 0,1.599947 L 14,11.60008 10.813278,9.200159 Z"
     id="path3201"
     inkscape:connector-curvature="0" />
</svg>

<svg xmlns="http://www.w3.org/2000/svg" viewBox="0 0 16 16">
  <path fill="#bebebe" d="M2.846 2v1.6h4.78c.342 0 .797.492.797.8v.8H4.44c-.733 0-1.383.307-1.793.775A2.42 2.42 0 0 0 2.05 7.6c.005.577.214 1.162.622 1.625A2.355 2.355 0 0 0 4.44 10h5.577V4.4c0-1.307-1.052-2.4-2.39-2.4h-4.78zM4.44 6.8h3.983v1.6H4.44c-.317 0-.452-.088-.573-.225a.917.917 0 0 1-.224-.575.9.9 0 0 1 .2-.575c.115-.132.26-.225.597-.225zm6.373 2.4v1.6H2v1.6h8.813V14L14 11.6z"/>
</svg>
